src/components/00-materials/images-raw/Hearing Impaired.svg

<svg width="96" height="96" viewBox="0 0 96 96" fill="none" xmlns="http://www.w3.org/2000/svg">
<path d="M25.02 64.53L32.99 56.91M46 57.11C46.6964 57.4121 47.4513 57.5556 48.21 57.53C49.1976 57.5481 50.1685 57.2732 51 56.74C51.7082 56.1822 52.1739 55.3727 52.3 54.48C52.3607 54.1162 52.3975 53.7487 52.41 53.38V51.27C52.3719 50.9885 52.4099 50.7019 52.52 50.44C52.6628 50.1967 52.8303 49.9688 53.02 49.76L53.16 49.6C53.2158 49.5451 53.2661 49.4848 53.31 49.42C53.49 49.2 53.68 48.94 53.89 48.63C54.1 48.32 54.28 48.03 54.45 47.74C54.62 47.45 54.84 47.1 55.02 46.74C55.079 46.6679 55.1262 46.5869 55.16 46.5C55.4652 45.6464 55.6208 44.7466 55.62 43.84C55.6288 42.8094 55.4246 41.788 55.02 40.84C54.2575 39.0093 52.8173 37.544 51 36.75C50.0616 36.3543 49.0535 36.1504 48.035 36.1504C47.0166 36.1504 46.0084 36.3543 45.07 36.75C44.1646 37.139 43.3429 37.6993 42.65 38.4C41.9521 39.1029 41.3924 39.9306 41 40.84C40.6035 41.7901 40.4028 42.8105 40.41 43.84L46 57.11ZM65.02 26.53L71.02 20.53L65.02 26.53Z" stroke="#00008F" stroke-width="2" stroke-linecap="round" stroke-linejoin="round"/>
<path d="M44.36 73.32C45.5911 74.0498 47.011 74.3978 48.44 74.32C50 74.32 53.31 73.72 54.87 72.53C56.4806 71.2551 57.5344 69.4056 57.81 67.37C57.9596 66.5446 58.0431 65.7087 58.06 64.87C58.06 63.87 58.06 62.24 58 60.09C57.9165 59.4457 58.0026 58.7908 58.25 58.19C58.48 57.77 63.41 51.59 64.25 49.19C64.9718 47.2745 65.3115 45.2361 65.25 43.19C65.3061 40.8387 64.8807 38.5008 64 36.32C63.1251 34.2522 61.8662 32.369 60.29 30.77C58.7097 29.1654 56.8312 27.8847 54.76 27C52.6264 26.1023 50.3349 25.6399 48.02 25.6399C45.7052 25.6399 43.4137 26.1023 41.28 27C39.2176 27.8765 37.346 29.1469 35.77 30.74C34.2017 32.3433 32.9468 34.2256 32.07 36.29C31.1637 38.435 30.7011 40.7414 30.71 43.07" stroke="#00008F" stroke-width="2" stroke-linecap="round" stroke-linejoin="round"/>
</svg>

<svg width="96" height="96" viewBox="0 0 96 96" fill="none" xmlns="http://www.w3.org/2000/svg"><path d="M25.02 64.53l7.97-7.62m13.01.2a5.12 5.12 0 002.21.42 4.999 4.999 0 002.79-.79 3.5 3.5 0 001.3-2.26c.06-.364.098-.731.11-1.1v-2.11c-.038-.282 0-.568.11-.83a4.09 4.09 0 01.5-.68l.14-.16c.056-.055.106-.115.15-.18.18-.22.37-.48.58-.79.21-.31.39-.6.56-.89.17-.29.39-.64.57-1a.886.886 0 00.14-.24 7.88 7.88 0 00.46-2.66 7.48 7.48 0 00-.6-3A7.69 7.69 0 0051 36.75a7.63 7.63 0 00-5.93 0 7.651 7.651 0 00-2.42 1.65A7.912 7.912 0 0041 40.84a7.65 7.65 0 00-.59 3L46 57.11zm19.02-30.58l6-6-6 6z" stroke="#00008F" stroke-width="2" stroke-linecap="round" stroke-linejoin="round"/><path d="M44.36 73.32a7.23 7.23 0 004.08 1c1.56 0 4.87-.6 6.43-1.79a7.94 7.94 0 002.94-5.16c.15-.825.233-1.661.25-2.5 0-1 0-2.63-.06-4.78a3.73 3.73 0 01.25-1.9c.23-.42 5.16-6.6 6-9a15.68 15.68 0 001-6c.056-2.351-.37-4.69-1.25-6.87a17.769 17.769 0 00-3.71-5.55A17.3 17.3 0 0054.76 27a17.38 17.38 0 00-13.48 0 17.23 17.23 0 00-5.51 3.74 18 18 0 00-3.7 5.55 17.251 17.251 0 00-1.36 6.78" stroke="#00008F" stroke-width="2" stroke-linecap="round" stroke-linejoin="round"/></svg>
